Newaita-dark/apps/24/system-file-manager.svg

<?xml version="1.0" encoding="UTF-8"?>
<svg xmlns="http://www.w3.org/2000/svg" xmlns:xlink="http://www.w3.org/1999/xlink" width="24pt" height="24pt" viewBox="0 0 24 24" version="1.1">
<defs>
<linearGradient id="linear0" gradientUnits="userSpaceOnUse" x1="254" y1="233.5" x2="254" y2="254.666672" gradientTransform="matrix(0.0468795,0,0,0.0468795,-0.0000028613,10.079089)">
<stop offset="0" style="stop-color:rgb(0%,0%,0%);stop-opacity:0.27451;"/>
<stop offset="1" style="stop-color:rgb(0%,0%,0%);stop-opacity:0;"/>
</linearGradient>
<radialGradient id="radial0" gradientUnits="userSpaceOnUse" cx="450.908936" cy="189.579361" fx="450.908936" fy="189.579361" r="21.166656" gradientTransform="matrix(0.000000130628,-0.0585994,-0.105479,-0.0000000761539,38.601845,47.696499)">
<stop offset="0" style="stop-color:rgb(0%,0%,0%);stop-opacity:0.313725;"/>
<stop offset="0.222222" style="stop-color:rgb(0%,0%,0%);stop-opacity:0.27451;"/>
<stop offset="1" style="stop-color:rgb(0%,0%,0%);stop-opacity:0;"/>
</radialGradient>
<radialGradient id="radial1" gradientUnits="userSpaceOnUse" cx="450.908936" cy="189.579361" fx="450.908936" fy="189.579361" r="21.166656" gradientTransform="matrix(-0.000000130628,0.0585994,0.105479,0.0000000761539,-14.787073,-5.645609)">
<stop offset="0" style="stop-color:rgb(0%,0%,0%);stop-opacity:0.313725;"/>
<stop offset="0.222222" style="stop-color:rgb(0%,0%,0%);stop-opacity:0.27451;"/>
<stop offset="1" style="stop-color:rgb(0%,0%,0%);stop-opacity:0;"/>
</radialGradient>
<radialGradient id="radial2" gradientUnits="userSpaceOnUse" cx="450.908936" cy="189.579361" fx="450.908936" fy="189.579361" r="21.166656" gradientTransform="matrix(-0.000000130628,-0.0585994,0.105479,-0.0000000761539,-14.787073,47.696499)">
<stop offset="0" style="stop-color:rgb(0%,0%,0%);stop-opacity:0.313725;"/>
<stop offset="0.222222" style="stop-color:rgb(0%,0%,0%);stop-opacity:0.27451;"/>
<stop offset="1" style="stop-color:rgb(0%,0%,0%);stop-opacity:0;"/>
</radialGradient>
<radialGradient id="radial3" gradientUnits="userSpaceOnUse" cx="450.908936" cy="189.579361" fx="450.908936" fy="189.579361" r="21.166656" gradientTransform="matrix(0.000000130628,0.0585994,-0.105479,0.0000000761539,38.601844,-5.64561)">
<stop offset="0" style="stop-color:rgb(0%,0%,0%);stop-opacity:0.313725;"/>
<stop offset="0.222222" style="stop-color:rgb(0%,0%,0%);stop-opacity:0.27451;"/>
<stop offset="1" style="stop-color:rgb(0%,0%,0%);stop-opacity:0;"/>
</radialGradient>
<linearGradient id="linear1" gradientUnits="userSpaceOnUse" x1="243.416672" y1="-168.666656" x2="243.416672" y2="233.5" gradientTransform="matrix(0.0468795,0,0,0.0468795,0,10.079087)">
<stop offset="0" style="stop-color:rgb(87.843137%,87.843137%,87.843137%);stop-opacity:1;"/>
<stop offset="1" style="stop-color:rgb(74.117647%,74.117647%,74.117647%);stop-opacity:1;"/>
</linearGradient>
<linearGradient id="linear2" gradientUnits="userSpaceOnUse" x1="179.916672" y1="-136.916672" x2="179.916672" y2="64.166664" gradientTransform="matrix(0.0468795,0,0,0.0468795,0,10.079087)">
<stop offset="0" style="stop-color:rgb(47.45098%,52.54902%,79.607843%);stop-opacity:1;"/>
<stop offset="1" style="stop-color:rgb(36.078431%,41.960784%,75.294118%);stop-opacity:1;"/>
</linearGradient>
<linearGradient id="linear3" gradientUnits="userSpaceOnUse" x1="169.333328" y1="-168.666702" x2="169.333328" y2="11.24997" gradientTransform="matrix(0.0468795,0,0,0.0468795,0,19.009629)">
<stop offset="0" style="stop-color:rgb(47.45098%,52.54902%,79.607843%);stop-opacity:1;"/>
<stop offset="1" style="stop-color:rgb(36.078431%,41.960784%,75.294118%);stop-opacity:1;"/>
</linearGradient>
<linearGradient id="linear4" gradientUnits="userSpaceOnUse" x1="254" y1="0.666663" x2="254" y2="-31.08334" gradientTransform="matrix(0.0468795,0,0,0.0468795,0,12.559793)">
<stop offset="0" style="stop-color:rgb(74.117647%,74.117647%,74.117647%);stop-opacity:1;"/>
<stop offset="1" style="stop-color:rgb(87.843137%,87.843137%,87.843137%);stop-opacity:1;"/>
</linearGradient>
<linearGradient id="linear5" gradientUnits="userSpaceOnUse" x1="254" y1="0.666663" x2="254" y2="-31.08334" gradientTransform="matrix(0.0468795,0,0,0.0468795,0,5.117676)">
<stop offset="0" style="stop-color:rgb(74.117647%,74.117647%,74.117647%);stop-opacity:1;"/>
<stop offset="1" style="stop-color:rgb(87.843137%,87.843137%,87.843137%);stop-opacity:1;"/>
</linearGradient>
</defs>
<g id="surface1">
<path style=" stroke:none;fill-rule:nonzero;fill:url(#linear0);" d="M 4.960938 21.027344 L 18.851562 21.027344 L 18.851562 22.019531 L 4.960938 22.019531 Z M 4.960938 21.027344 "/>
<path style=" stroke:none;fill-rule:nonzero;fill:url(#radial0);" d="M 18.851562 21.027344 L 20.839844 21.027344 L 20.839844 20.03125 L 18.851562 20.03125 Z M 18.851562 21.027344 "/>
<path style=" stroke:none;fill-rule:nonzero;fill:url(#radial1);" d="M 4.960938 21.027344 L 2.976562 21.027344 L 2.976562 22.019531 L 4.960938 22.019531 Z M 4.960938 21.027344 "/>
<path style=" stroke:none;fill-rule:nonzero;fill:url(#radial2);" d="M 4.960938 21.027344 L 2.976562 21.027344 L 2.976562 20.03125 L 4.960938 20.03125 Z M 4.960938 21.027344 "/>
<path style=" stroke:none;fill-rule:nonzero;fill:url(#radial3);" d="M 18.851562 21.027344 L 20.839844 21.027344 L 20.839844 22.019531 L 18.851562 22.019531 Z M 18.851562 21.027344 "/>
<path style=" stroke:none;fill-rule:nonzero;fill:url(#linear1);" d="M 3.96875 2.171875 L 19.84375 2.171875 C 20.394531 2.171875 20.839844 2.617188 20.839844 3.164062 L 20.839844 20.03125 C 20.839844 20.582031 20.394531 21.027344 19.84375 21.027344 L 3.96875 21.027344 C 3.421875 21.027344 2.976562 20.582031 2.976562 20.03125 L 2.976562 3.164062 C 2.976562 2.617188 3.421875 2.171875 3.96875 2.171875 Z M 3.96875 2.171875 "/>
<path style=" stroke:none;fill-rule:nonzero;fill:rgb(90.196079%,90.196079%,90.196079%);fill-opacity:0.588235;" d="M 3.96875 2.171875 C 3.417969 2.171875 2.976562 2.613281 2.976562 3.164062 L 2.976562 3.289062 C 2.976562 2.738281 3.417969 2.296875 3.96875 2.296875 L 19.84375 2.296875 C 20.394531 2.296875 20.839844 2.738281 20.839844 3.289062 L 20.839844 3.164062 C 20.839844 2.613281 20.394531 2.171875 19.84375 2.171875 Z M 3.96875 2.171875 "/>
<path style=" stroke:none;fill-rule:nonzero;fill:url(#linear2);" d="M 4.960938 3.660156 L 18.851562 3.660156 C 19.128906 3.660156 19.347656 3.882812 19.347656 4.15625 L 19.347656 9.613281 C 19.347656 9.886719 19.128906 10.109375 18.851562 10.109375 L 4.960938 10.109375 C 4.6875 10.109375 4.464844 9.886719 4.464844 9.613281 L 4.464844 4.15625 C 4.464844 3.882812 4.6875 3.660156 4.960938 3.660156 Z M 4.960938 3.660156 "/>
<path style=" stroke:none;fill-rule:nonzero;fill:url(#linear3);" d="M 4.960938 11.101562 L 18.851562 11.101562 C 19.128906 11.101562 19.347656 11.324219 19.347656 11.597656 L 19.347656 19.039062 C 19.347656 19.316406 19.128906 19.535156 18.851562 19.535156 L 4.960938 19.535156 C 4.6875 19.535156 4.464844 19.316406 4.464844 19.039062 L 4.464844 11.597656 C 4.464844 11.324219 4.6875 11.101562 4.960938 11.101562 Z M 4.960938 11.101562 "/>
<path style=" stroke:none;fill-rule:nonzero;fill:rgb(100%,100%,100%);fill-opacity:0.392157;" d="M 4.960938 3.660156 C 4.6875 3.660156 4.464844 3.882812 4.464844 4.15625 L 4.464844 4.40625 C 4.464844 4.128906 4.6875 3.910156 4.960938 3.910156 L 18.851562 3.910156 C 19.128906 3.910156 19.347656 4.128906 19.347656 4.40625 L 19.347656 4.15625 C 19.347656 3.882812 19.128906 3.660156 18.851562 3.660156 Z M 4.960938 3.660156 "/>
<path style=" stroke:none;fill-rule:nonzero;fill:rgb(0%,0%,0%);fill-opacity:0.235294;" d="M 4.960938 10.421875 C 4.6875 10.421875 4.464844 10.199219 4.464844 9.925781 L 4.464844 9.675781 C 4.464844 9.949219 4.6875 10.171875 4.960938 10.171875 L 18.851562 10.171875 C 19.128906 10.171875 19.347656 9.949219 19.347656 9.675781 L 19.347656 9.925781 C 19.347656 10.199219 19.128906 10.421875 18.851562 10.421875 Z M 4.960938 10.421875 "/>
<path style="fill:none;stroke-width:3;stroke-linecap:round;stroke-linejoin:miter;stroke:rgb(12.941177%,12.941177%,12.941177%);stroke-opacity:1;stroke-miterlimit:4;" d="M 105.823228 -136.924123 L 402.128265 -136.924123 C 408.044367 -136.924123 412.710588 -132.174576 412.710588 -126.3418 L 412.710588 -9.936249 C 412.710588 -4.103473 408.044367 0.646073 402.128265 0.646073 L 105.823228 0.646073 C 99.990451 0.646073 95.240905 -4.103473 95.240905 -9.936249 L 95.240905 -126.3418 C 95.240905 -132.174576 99.990451 -136.924123 105.823228 -136.924123 Z M 105.823228 -136.924123 " transform="matrix(0.0468795,0,0,0.0468795,0,10.079087)"/>
<path style=" stroke:none;fill-rule:nonzero;fill:rgb(100%,100%,100%);fill-opacity:0.392157;" d="M 4.960938 11.101562 C 4.6875 11.101562 4.464844 11.324219 4.464844 11.597656 L 4.464844 11.847656 C 4.464844 11.570312 4.6875 11.351562 4.960938 11.351562 L 18.851562 11.351562 C 19.128906 11.351562 19.347656 11.570312 19.347656 11.847656 L 19.347656 11.597656 C 19.347656 11.324219 19.128906 11.101562 18.851562 11.101562 Z M 4.960938 11.101562 "/>
<path style=" stroke:none;fill-rule:nonzero;fill:rgb(0%,0%,0%);fill-opacity:0.235294;" d="M 4.960938 19.847656 C 4.6875 19.847656 4.464844 19.625 4.464844 19.351562 L 4.464844 19.101562 C 4.464844 19.378906 4.6875 19.597656 4.960938 19.597656 L 18.851562 19.597656 C 19.128906 19.597656 19.347656 19.378906 19.347656 19.101562 L 19.347656 19.351562 C 19.347656 19.625 19.128906 19.847656 18.851562 19.847656 Z M 4.960938 19.847656 "/>
<path style="fill:none;stroke-width:3;stroke-linecap:round;stroke-linejoin:miter;stroke:rgb(12.941177%,12.941177%,12.941177%);stroke-opacity:1;stroke-miterlimit:4;" d="M 105.823228 21.810719 L 402.128265 21.810719 C 408.044367 21.810719 412.710588 26.560265 412.710588 32.393042 L 412.710588 191.127883 C 412.710588 197.043985 408.044367 201.710206 402.128265 201.710206 L 105.823228 201.710206 C 99.990451 201.710206 95.240905 197.043985 95.240905 191.127883 L 95.240905 32.393042 C 95.240905 26.560265 99.990451 21.810719 105.823228 21.810719 Z M 105.823228 21.810719 " transform="matrix(0.0468795,0,0,0.0468795,0,10.079087)"/>
<path style=" stroke:none;fill-rule:nonzero;fill:rgb(100%,100%,100%);fill-opacity:0.705882;" d="M 3.96875 2.171875 C 3.417969 2.171875 2.976562 2.613281 2.976562 3.164062 L 2.976562 3.535156 C 2.976562 2.988281 3.417969 2.542969 3.96875 2.542969 L 19.84375 2.542969 C 20.394531 2.542969 20.839844 2.988281 20.839844 3.535156 L 20.839844 3.164062 C 20.839844 2.613281 20.394531 2.171875 19.84375 2.171875 Z M 3.96875 2.171875 "/>
<path style=" stroke:none;fill-rule:nonzero;fill:rgb(0%,0%,0%);fill-opacity:0.235294;" d="M 3.96875 21.027344 C 3.417969 21.027344 2.976562 20.582031 2.976562 20.03125 L 2.976562 19.660156 C 2.976562 20.210938 3.417969 20.652344 3.96875 20.652344 L 19.84375 20.652344 C 20.394531 20.652344 20.839844 20.210938 20.839844 19.660156 L 20.839844 20.03125 C 20.839844 20.582031 20.394531 21.027344 19.84375 21.027344 Z M 3.96875 21.027344 "/>
<path style=" stroke:none;fill-rule:nonzero;fill:rgb(12.941177%,12.941177%,12.941177%);fill-opacity:1;" d="M 3.96875 2.101562 C 3.382812 2.101562 2.90625 2.578125 2.90625 3.164062 L 2.90625 20.03125 C 2.90625 20.621094 3.382812 21.097656 3.96875 21.097656 L 19.84375 21.097656 C 20.433594 21.097656 20.910156 20.621094 20.910156 20.03125 L 20.910156 3.164062 C 20.910156 2.578125 20.433594 2.101562 19.84375 2.101562 Z M 3.96875 2.242188 L 19.84375 2.242188 C 20.359375 2.242188 20.769531 2.652344 20.769531 3.164062 L 20.769531 20.03125 C 20.769531 20.546875 20.359375 20.957031 19.84375 20.957031 L 3.96875 20.957031 C 3.457031 20.957031 3.046875 20.546875 3.046875 20.03125 L 3.046875 3.164062 C 3.046875 2.652344 3.457031 2.242188 3.96875 2.242188 Z M 3.96875 2.242188 "/>
<path style=" stroke:none;fill-rule:nonzero;fill:url(#linear4);" d="M 10.171875 11.101562 L 10.171875 12.09375 C 10.171875 12.371094 10.390625 12.589844 10.667969 12.589844 L 13.148438 12.589844 C 13.421875 12.589844 13.644531 12.371094 13.644531 12.09375 L 13.644531 11.101562 Z M 10.171875 11.101562 "/>
<path style=" stroke:none;fill-rule:nonzero;fill:rgb(0%,0%,0%);fill-opacity:0.235294;" d="M 10.171875 12.09375 L 10.171875 12.34375 C 10.171875 12.617188 10.390625 12.839844 10.667969 12.839844 L 13.148438 12.839844 C 13.421875 12.839844 13.644531 12.617188 13.644531 12.34375 L 13.644531 12.09375 C 13.644531 12.371094 13.421875 12.589844 13.148438 12.589844 L 10.667969 12.589844 C 10.390625 12.589844 10.171875 12.371094 10.171875 12.09375 Z M 10.171875 12.09375 "/>
<path style=" stroke:none;fill-rule:nonzero;fill:rgb(100%,100%,100%);fill-opacity:0.784314;" d="M 10.171875 11.101562 L 10.171875 11.351562 L 13.644531 11.351562 L 13.644531 11.101562 Z M 10.171875 11.101562 "/>
<path style=" stroke:none;fill-rule:nonzero;fill:rgb(12.941177%,12.941177%,12.941177%);fill-opacity:1;" d="M 10.101562 11.03125 L 10.101562 12.09375 C 10.101562 12.40625 10.355469 12.660156 10.667969 12.660156 L 13.148438 12.660156 C 13.460938 12.660156 13.714844 12.40625 13.714844 12.09375 L 13.714844 11.03125 Z M 10.242188 11.171875 L 13.574219 11.171875 L 13.574219 12.09375 C 13.574219 12.332031 13.386719 12.519531 13.148438 12.519531 L 10.667969 12.519531 C 10.429688 12.519531 10.242188 12.332031 10.242188 12.09375 Z M 10.242188 11.171875 "/>
<path style=" stroke:none;fill-rule:nonzero;fill:url(#linear5);" d="M 10.171875 3.660156 L 10.171875 4.652344 C 10.171875 4.925781 10.390625 5.148438 10.667969 5.148438 L 13.148438 5.148438 C 13.421875 5.148438 13.644531 4.925781 13.644531 4.652344 L 13.644531 3.660156 Z M 10.171875 3.660156 "/>
<path style=" stroke:none;fill-rule:nonzero;fill:rgb(0%,0%,0%);fill-opacity:0.235294;" d="M 10.171875 4.652344 L 10.171875 4.902344 C 10.171875 5.175781 10.390625 5.398438 10.667969 5.398438 L 13.148438 5.398438 C 13.421875 5.398438 13.644531 5.175781 13.644531 4.902344 L 13.644531 4.652344 C 13.644531 4.925781 13.421875 5.148438 13.148438 5.148438 L 10.667969 5.148438 C 10.390625 5.148438 10.171875 4.925781 10.171875 4.652344 Z M 10.171875 4.652344 "/>
<path style=" stroke:none;fill-rule:nonzero;fill:rgb(100%,100%,100%);fill-opacity:0.784314;" d="M 10.171875 3.660156 L 10.171875 3.910156 L 13.644531 3.910156 L 13.644531 3.660156 Z M 10.171875 3.660156 "/>
<path style=" stroke:none;fill-rule:nonzero;fill:rgb(12.941177%,12.941177%,12.941177%);fill-opacity:1;" d="M 10.101562 3.589844 L 10.101562 4.652344 C 10.101562 4.964844 10.355469 5.21875 10.667969 5.21875 L 13.148438 5.21875 C 13.460938 5.21875 13.714844 4.964844 13.714844 4.652344 L 13.714844 3.589844 Z M 10.242188 3.730469 L 13.574219 3.730469 L 13.574219 4.652344 C 13.574219 4.890625 13.386719 5.078125 13.148438 5.078125 L 10.667969 5.078125 C 10.429688 5.078125 10.242188 4.890625 10.242188 4.652344 Z M 10.242188 3.730469 "/>
</g>
</svg>

<svg xmlns="http://www.w3.org/2000/svg" width="32" height="32" viewBox="0 0 24 24"><defs><linearGradient id="a" gradientUnits="userSpaceOnUse" x1="254" y1="233.5" x2="254" y2="254.667" gradientTransform="matrix(.04688 0 0 .04688 0 10.08)"><stop offset="0" stop-opacity=".275"/><stop offset="1" stop-opacity="0"/></linearGradient><radialGradient id="b" gradientUnits="userSpaceOnUse" cx="450.909" cy="189.579" fx="450.909" fy="189.579" r="21.167" gradientTransform="matrix(0 -.0586 -.10548 0 38.602 47.696)"><stop offset="0" stop-opacity=".314"/><stop offset=".222" stop-opacity=".275"/><stop offset="1" stop-opacity="0"/></radialGradient><radialGradient id="c" gradientUnits="userSpaceOnUse" cx="450.909" cy="189.579" fx="450.909" fy="189.579" r="21.167" gradientTransform="matrix(0 .0586 .10548 0 -14.787 -5.646)"><stop offset="0" stop-opacity=".314"/><stop offset=".222" stop-opacity=".275"/><stop offset="1" stop-opacity="0"/></radialGradient><radialGradient id="d" gradientUnits="userSpaceOnUse" cx="450.909" cy="189.579" fx="450.909" fy="189.579" r="21.167" gradientTransform="matrix(0 -.0586 .10548 0 -14.787 47.696)"><stop offset="0" stop-opacity=".314"/><stop offset=".222" stop-opacity=".275"/><stop offset="1" stop-opacity="0"/></radialGradient><radialGradient id="e" gradientUnits="userSpaceOnUse" cx="450.909" cy="189.579" fx="450.909" fy="189.579" r="21.167" gradientTransform="matrix(0 .0586 -.10548 0 38.602 -5.646)"><stop offset="0" stop-opacity=".314"/><stop offset=".222" stop-opacity=".275"/><stop offset="1" stop-opacity="0"/></radialGradient><linearGradient id="f" gradientUnits="userSpaceOnUse" x1="243.417" y1="-168.667" x2="243.417" y2="233.5" gradientTransform="matrix(.04688 0 0 .04688 0 10.08)"><stop offset="0" stop-color="#e0e0e0"/><stop offset="1" stop-color="#bdbdbd"/></linearGradient><linearGradient id="g" gradientUnits="userSpaceOnUse" x1="179.917" y1="-136.917" x2="179.917" y2="64.167" gradientTransform="matrix(.04688 0 0 .04688 0 10.08)"><stop offset="0" stop-color="#7986cb"/><stop offset="1" stop-color="#5c6bc0"/></linearGradient><linearGradient id="h" gradientUnits="userSpaceOnUse" x1="169.333" y1="-168.667" x2="169.333" y2="11.25" gradientTransform="matrix(.04688 0 0 .04688 0 19.01)"><stop offset="0" stop-color="#7986cb"/><stop offset="1" stop-color="#5c6bc0"/></linearGradient><linearGradient id="i" gradientUnits="userSpaceOnUse" x1="254" y1=".667" x2="254" y2="-31.083" gradientTransform="matrix(.04688 0 0 .04688 0 12.56)"><stop offset="0" stop-color="#bdbdbd"/><stop offset="1" stop-color="#e0e0e0"/></linearGradient><linearGradient id="j" gradientUnits="userSpaceOnUse" x1="254" y1=".667" x2="254" y2="-31.083" gradientTransform="matrix(.04688 0 0 .04688 0 5.118)"><stop offset="0" stop-color="#bdbdbd"/><stop offset="1" stop-color="#e0e0e0"/></linearGradient></defs><path d="M4.96 21.027h13.892v.993H4.96zm0 0" fill="url(#a)"/><path d="M18.852 21.027h1.988v-.996h-1.988zm0 0" fill="url(#b)"/><path d="M4.96 21.027H2.978v.993H4.96zm0 0" fill="url(#c)"/><path d="M4.96 21.027H2.978v-.996H4.96zm0 0" fill="url(#d)"/><path d="M18.852 21.027h1.988v.993h-1.988zm0 0" fill="url(#e)"/><path d="M3.969 2.172h15.875c.55 0 .996.445.996.992v16.867c0 .551-.445.996-.996.996H3.969a.994.994 0 0 1-.992-.996V3.164c0-.547.445-.992.992-.992zm0 0" fill="url(#f)"/><path d="M3.969 2.172a.989.989 0 0 0-.992.992v.125c0-.55.441-.992.992-.992h15.875c.55 0 .996.441.996.992v-.125a.992.992 0 0 0-.996-.992zm0 0" fill="#e6e6e6" fill-opacity=".588"/><path d="M4.96 3.66h13.892c.277 0 .496.223.496.496v5.457a.494.494 0 0 1-.496.496H4.96a.497.497 0 0 1-.496-.496V4.156c0-.273.223-.496.496-.496zm0 0" fill="url(#g)"/><path d="M4.96 11.102h13.892c.277 0 .496.222.496.496v7.441a.492.492 0 0 1-.496.496H4.96a.494.494 0 0 1-.496-.496v-7.441c0-.274.223-.496.496-.496zm0 0" fill="url(#h)"/><path d="M4.96 3.66a.497.497 0 0 0-.495.496v.25c0-.277.223-.496.496-.496h13.89c.278 0 .497.219.497.496v-.25a.494.494 0 0 0-.496-.496zm0 0" fill="#fff" fill-opacity=".392"/><path d="M4.96 10.422a.497.497 0 0 1-.495-.496v-.25c0 .273.223.496.496.496h13.89a.494.494 0 0 0 .497-.496v.25a.494.494 0 0 1-.496.496zm0 0" fill-opacity=".235"/><path d="M4.96 3.66h13.892c.277 0 .496.223.496.496v5.457a.494.494 0 0 1-.496.496H4.96a.497.497 0 0 1-.496-.496V4.156c0-.273.223-.496.496-.496zm0 0" fill="none" stroke-width=".14064" stroke-linecap="round" stroke="#212121"/><path d="M4.96 11.102a.497.497 0 0 0-.495.496v.25c0-.278.223-.496.496-.496h13.89c.278 0 .497.218.497.496v-.25a.494.494 0 0 0-.496-.496zm0 0" fill="#fff" fill-opacity=".392"/><path d="M4.96 19.848a.497.497 0 0 1-.495-.496v-.25c0 .277.223.496.496.496h13.89a.492.492 0 0 0 .497-.496v.25a.494.494 0 0 1-.496.496zm0 0" fill-opacity=".235"/><path d="M4.96 11.102h13.892c.277 0 .496.222.496.496v7.441a.492.492 0 0 1-.496.496H4.96a.494.494 0 0 1-.496-.496v-7.441c0-.274.223-.496.496-.496zm0 0" fill="none" stroke-width=".14064" stroke-linecap="round" stroke="#212121"/><path d="M3.969 2.172a.989.989 0 0 0-.992.992v.371c0-.547.441-.992.992-.992h15.875c.55 0 .996.445.996.992v-.37a.992.992 0 0 0-.996-.993zm0 0" fill="#fff" fill-opacity=".706"/><path d="M3.969 21.027a.992.992 0 0 1-.992-.996v-.37c0 .55.441.991.992.991h15.875c.55 0 .996-.441.996-.992v.371c0 .551-.445.996-.996.996zm0 0" fill-opacity=".235"/><path d="M3.969 2.102c-.586 0-1.063.476-1.063 1.062v16.867c0 .59.477 1.067 1.063 1.067h15.875c.59 0 1.066-.477 1.066-1.067V3.164c0-.586-.476-1.062-1.066-1.062zm0 .14h15.875a.92.92 0 0 1 .926.922v16.867a.92.92 0 0 1-.926.926H3.969a.92.92 0 0 1-.922-.926V3.164c0-.512.41-.922.922-.922zm0 0" fill="#212121"/><path d="M10.172 11.102v.992c0 .277.219.496.496.496h2.48a.494.494 0 0 0 .497-.496v-.992zm0 0" fill="url(#i)"/><path d="M10.172 12.094v.25c0 .273.219.496.496.496h2.48a.497.497 0 0 0 .497-.496v-.25a.494.494 0 0 1-.497.496h-2.48a.492.492 0 0 1-.496-.496zm0 0" fill-opacity=".235"/><path d="M10.172 11.102v.25h3.473v-.25zm0 0" fill="#fff" fill-opacity=".784"/><path d="M10.102 11.031v1.063c0 .312.253.566.566.566h2.48a.567.567 0 0 0 .567-.566V11.03zm.14.14h3.332v.923a.422.422 0 0 1-.426.426h-2.48a.422.422 0 0 1-.426-.426zm0 0" fill="#212121"/><path d="M10.172 3.66v.992c0 .274.219.496.496.496h2.48a.497.497 0 0 0 .497-.496V3.66zm0 0" fill="url(#j)"/><path d="M10.172 4.652v.25c0 .274.219.496.496.496h2.48a.497.497 0 0 0 .497-.496v-.25a.497.497 0 0 1-.497.496h-2.48a.494.494 0 0 1-.496-.496zm0 0" fill-opacity=".235"/><path d="M10.172 3.66v.25h3.473v-.25zm0 0" fill="#fff" fill-opacity=".784"/><path d="M10.102 3.59v1.062c0 .313.253.567.566.567h2.48a.567.567 0 0 0 .567-.567V3.59zm.14.14h3.332v.922a.422.422 0 0 1-.426.426h-2.48a.422.422 0 0 1-.426-.426zm0 0" fill="#212121"/></svg>
